table-split-cell.svg

<svg fill="currentColor" viewBox="0 0 24 24"><path d="M19 14h2v6H3v-6h2v4h14zM3 4v6h2V6h14v4h2V4zm8 7v2H8v2l-3-3 3-3v2zm5 0V9l3 3-3 3v-2h-3v-2z"/></svg>

<svg  viewBox="0 0 24 24" fill="currentColor"><path  d="M19 14H21V20H3V14H5V18H19V14M3 4V10H5V6H19V10H21V4H3M11 11V13H8V15L5 12L8 9V11H11M16 11V9L19 12L16 15V13H13V11H16Z"/></svg>
